X:202
T:Trip to Durrow (reel), The  
B:CRE1.127 (Turas go Darmhaigh)
F:file ID: cre.1/202trip_d
S:John Potts
N:There are a number of settings of this tune, e.g. repeat
of the A part, different measure 4-8 of the C part, etc.
M:C
L:1/8
Q:180
R:reel
K:D
D2D2 ADFD|defd BABc|dBBA dBBA|fade fee2|
D2D2 ADFD|defd BABc|dBBA FAdB|AFGE FDD2:|
%B
ABde fefg|afdf gfed|cdef gebe|gebe gfef|
dcde fefg|afdf gfed|cdef gbag|fdec d3||
%C
e|fdec d3e|fded Bee2|dBBA dBBA|FADE FEE2|
dfec d3e|fded Bee2|dBAB d3e|faeg fdd2||

%%%

